X: 1058
T: Am Fear Liath Mor
R: reel
M: 4/4
K: Adorian
GAAG AAGA|BcAA GAAG|ABcd cBAG|.Az A3 AGA|
BcAz c'bag|edce bz3|a8-|a8-|a8-|a8-|a4 z4|z8||
|:EAcd e zed|cAGG EGAG|~F3A FED2|DEEd edc/c/d|
eAgg fdAG|F2z (3B/c/d/ cBAz|EAcd e zed|cAGG E.GAG|
~F3A FAcd|e zed c/c/deg|dcBG EAAG|AAGA BcAz:|
|:e~A3 cdeg|effa fedA|e~A3 (3Bcd ed|cAGE A3z|
e~A3 cdeg|e~f3 fedA|(3Bcd Az (3Bcd ed|cAGE ~A3d|
e~A3 cdeg|effa fed2|eA3 cded|cAGE A3E|
e~A3 cdeg|fAdf fged|(3Bcd Az (3Bcd ed|cAGE A2z2:|

